X:181
T:Carraroe Jig, The
R:jig
H:Related to "The Scotsman over the Border", #5
D:Patrick Street
Z:id:hn-jig-181
M:6/8
K:D
DED F2A|dfe d2A|BAF Adf|afd e2f|DED F2A|dfe d2A|~B3 AFA|1 dAF E2F:|2 dAF E2D||
dfa afa|bge edB|dfa afa|bge efe|dfa afa|bge edB|d2B AFA|1 dAF E2D:|2 dAF E2F||

